!!!OTL: "Kiltgang" JOSCHO EISI LASS MI INNE
!!!ARE: Europa, Mitteleuropa, Schweiz
!!!SCT: Z1223
!!!YEM: Copyright 1995, estate of Helmut Schaffrath.
**kern
*ICvox
*Ivox
*M3/4
*k[f#c#]
*D:
{8.dd
16a
=1
8a
8f#
8f#
8d
8d
8f#
=2
4.g
8g}
{8a
8b
=3
4a
4a
8b
8cc#
=4
2dd}
{8.dd
16a
=5
8a
8f#
8f#
8d
8d
8f#
=6
4g
4g}
{8a
8b
=7
4.a
8a
8b
8cc#
=8
4dd
4r}
{8dd
8ee
=9
4.ff#
8ee
8dd
8ff#
=10
8ee
8cc#
4a}
{8dd
8ee
=11
4.ff#
8ee
8dd
8ff#
=12
4ee
4r}
{8.dd
16a
=13
8a
8f#
8f#
8d
8d
8f#
=14
4g
4g}
{8a
8b
=15
4a
4a
8b
8cc#
=16
4dd
4r}
==
!!!AGN: Liebes - Lied
!!!ONB: ESAC (Essen Associative Code) Database: ZUCCAL
!!!AMT: simple triple
!!!AIN: vox
!!!EED: Helmut Schaffrath
!!!EEV: 1.0
*-
